X:1
T:Look unto Me
T:Look unto Me
T:James McGranahan
T:Daniel Webster Whittle, 1885
T:Public Domain Courtesy of the Cyber Hymnal™
T:Public Domain Courtesy of the Cyber Hymnal™
C:James McGranahan
Z:Public Domain
Z:Courtesy of the Cyber Hymnal™
%%score ( 1 2 ) ( 3 4 )
L:1/8
Q:1/4=90
M:3/4
K:D
V:1 treble 
V:2 treble 
V:3 bass 
V:4 bass 
V:1
 D[DF] [EG] | [FA]3 [FA] [GB][^E^G] | [FA]4 [FA]2 | [GA]3 [CE] [DF][EG] x6 | [DF]3 D [DF][EG] | %5
w: 1.~“Look un- to|Me, and be ye|saved,” O|hear the blest com-|mand, Sal- va- tion|
w: 2.~“Look un- to|Me, up- on the|cross, O|wea- ry bur- dened|soul; ’Twas there on|
w: 3.~“Look un- to|Me, thy ris- en|Lord, In|dark temp- ta- tion’s|hour; The need- ful|
w: 4.~“Look un- to|Me, and not with-|in, No|help is there for|thee; For par- don,|
 [FA]3 [FA] [GB][^E^G] | [FA]4 [FA]2 | [EA]3 [DF] [CG][CE] | !fermata!D3 || %9
w: full! sal- va- tion|free! Pro-|claim o’er ev- ery|land.|
w: Me thy sins were|laid, Be-|lieve and be made|whole.”|
w: grace I’ll free- ly|give, To|keep from Sa- tan’s|power.”|
w: peace and all thy|need, Look|on- ly un- to|Me.”|
[M:4/4]"^Refrain" [DF][EG][FA] x5 | [GB]4- [GB][Bd][Bd][GB] | [FA]6 z2 | [GA]3 [GB] (AB)[GA][GB] | %13
w: ||||
w: “Look un- to|Me, * and be ye|saved,|All ye ends * of the|
w: ||||
w: ||||
 A4- [FA][DF][EG][FA] | [GB]4- [GB]BB[GB] | [FA]4- [FA][FA][FA][FA] | [Ec]3 [Gc] [Gc]2 (Bc) | %17
w: ||||
w: earth; For I am God,|* * there is none|else, * Look un- to|Me, and be ye *|
w: ||||
w: ||||
 d4- !fermata![Fd] |] %18
w: |
w: saved.” *|
w: |
w: |
V:2
 D x2 | x6 | x6 | x12 | x3 D x2 | x6 | x6 | x6 | D3 ||[M:4/4] x8 | x8 | x8 | x4 G2 x2 | F2 F F x4 | %14
 x8 | x8 | x6 G2 | F F A G x |] %18
V:3
 [D,F,][D,A,] [D,A,] | [D,D]3 [D,D] [D,D][D,D] | [D,D]4 [D,D]2 | %3
w: ~ ~ ~|~ ~ ~ ~|~ ~|
 [E,C]3 [E,A,] [A,,A,][A,,A,] [D,A,]3 [D,F,][D,A,][D,A,] | [D,D]3 [D,D] [D,D][D,D] | %5
w: ~ ~ ~ ~ ~ ~ ~ ~|~ ~ ~ ~|
 [D,D]4 [D,D]2 | [A,,C]3 [A,,A,] [A,,A,][A,,G,] | !fermata![D,F,]3 x3 |[M:4/4] z3 || %9
w: ~ ~|~ ~ ~ ~|~||
 z [G,D][G,D][G,D] [G,D] z3 | z [D,D][D,D][D,D] [D,D]2 z2 | [E,C]3 [E,C] [A,,C]2 [A,,C][A,,C] | %12
w: “Look un- to Me,|and be ye saved,|All ye ends, all ye|
 [D,D]2 [D,D][D,D] [D,D][=C,D][B,,D][A,,D] | [G,,D]2 [G,D][G,D] [G,D] z3 | %14
w: ends of the earth, For I am|God, I am God,|
 z [D,D][D,D][D,D] [D,D][D,A,][D,A,][D,A,] | [A,,A,]3 [A,,E] [A,,E]2 [A,,A,]2 | %16
w: There is none else, ~ ~ ~|~ ~ ~ ~|
 A,A,=CB, !fermata![D,A,] x3 | x5 |] %18
w: and be ye saved.” *||
V:4
 x3 | x6 | x6 | x12 | x6 | x6 | x6 | x6 |[M:4/4] x3 || x8 | x8 | x8 | x8 | x8 | x8 | x8 | D,4- x4 | %17
 x5 |] %18

